X:1
T:Title
L:1/8
Q:1/4=100
M:4/4
K:C
V:1 treble nm="Grand Piano"
V:1
 E2 EF EDCE | GG/G/- GA GF/E/- EE/E/ | FFFE F2 FE | DD/D/- DC D4 | E2 EF EDCE | %5
w: ????~???? * * * * * *|||||
 G2 GA/G/- GF EE/E/ | FFFE F2 FE | DD/D/- DC D3- D/C/ | AAAF G2 GG/G/ | G2 GA ED/C/- C>E | %10
w: |||||
 FF FE/E/ D/D/D CD | E3 D C4 | AAAF G2 G>G | GG/G/- Gd cB/A/- A2 | FFFE DD/D/ CB, | C8 |] %16
w: ||||||

